X:446
T:Reel 446
M:4/4
K:Gmaj
L:1/8
d|g3b afgf|edce AGFA|g2Bg faag|fdcA dBcd|g2bg abaf|abc'g adef|gdBd ecdB|cedc BGG|c'|b2bg a2bc'|bgag fddc'|b2bg a2ag|ad'c'a aggc'|b2bg a2ag|fdab c'2bc'|d'bc'a bgaf|gdec BGG|
